Yaru++/mimetypes/16/application-pgp-encrypted.svg

<svg height="16" viewBox="0 0 4.233125 4.233125" width="16" xmlns="http://www.w3.org/2000/svg" xmlns:xlink="http://www.w3.org/1999/xlink"><linearGradient id="a" gradientUnits="userSpaceOnUse" x1="328" x2="328" y1="237" y2="251"><stop offset="0" stop-color="#fff"/><stop offset=".125" stop-color="#fff" stop-opacity=".098039"/><stop offset=".92500001" stop-color="#fff" stop-opacity=".098039"/><stop offset="1" stop-color="#fff" stop-opacity=".498039"/></linearGradient><clipPath id="b"><path d="m325.09646 237c-2.80769 0-3.10979.28839-3.09603 3.10176v3.89824 3.89824c-.0138 2.81337.28834 3.10176 3.09603 3.10176h5.8075c2.8077 0 3.09604-.28835 3.09604-3.10176v-3.89824-3.89824c0-2.8134-.28835-3.10176-3.09604-3.10176z"/></clipPath><linearGradient id="c" gradientTransform="matrix(0 -.00953618 .00953591 0 -.942985 4.473643)" gradientUnits="userSpaceOnUse" x1="459.03448" x2="35.310345" y1="419.23337" y2="207.36522"><stop offset="0" stop-color="#f2f2f2"/><stop offset="1" stop-color="#f9f9f9"/></linearGradient><path d="m1.3483185.26457028c-.1902366 0-.3444309.003678-.48573256.0273883-.14130436.023732-.28264046.0730955-.39065659.18085764-.10801348.10775949-.15783472.24955066-.18137354.39116985-.02354675.14162183-.02677187.29644573-.02584851.48728563v.7652908 1.0314115c-.00079372.1900038.002381.3445631.0258485.4857352.0235468.1416192.0733574.2834104.18137354.3911699.10801613.1077621.24935223.1571389.39065659.1808576.14130167.023732.29549597.027388.48573257.027388h1.5367831c.1902367 0 .3440949-.00362.4852167-.027388.1411245-.0237584.2824765-.0735294.3901381-.1813736.1076616-.1078441.1571653-.249413.1808576-.3906539.0236949-.1412435.0273883-.2951308.0273883-.4857352v-1.0314115-.7668412c0-.1906044-.0037-.3444917-.027388-.48573523-.023679-.14124086-.073196-.28280979-.1808579-.39065394-.1076616-.10784415-.2490136-.1576257-.3901381-.18137353-.1411218-.0237505-.29498-.0273883-.4852167-.0273883z" opacity=".1"/><path d="m1.3485196.26457028c-.74283143 0-.82275813.0762994-.81911763.82063362v1.0313586 1.0313586c-.003651.7443342.0762862.8206336.81911763.8206336h1.5364921c.7428341 0 .8191203-.076289.8191203-.8206336v-1.0313586-1.0313586c0-.74434212-.076289-.82063362-.8191203-.82063362z" fill="none" opacity=".2" stroke="#000" stroke-width=".529141"/><path d="m1.3485196.26457028c-.74283143 0-.82275813.0762994-.81911763.82063362v1.0313586 1.0313586c-.003651.7443342.0762862.8206336.81911763.8206336h1.5364921c.7428341 0 .8191203-.076289.8191203-.8206336v-1.0313586-1.0313586c0-.74434212-.076289-.82063362-.8191203-.82063362z" fill="url(#c)"/><path d="m1.4552843 1.8519922v-.2645703c0-.5291407.00653-.92599615.6614258-.92599615.6539199 0 .6614257.39685545.6614257.92599615v.2645703" fill="none" stroke="#808080" stroke-width=".26457"/><path d="m1.8521398 1.5874219c-.5291407 0-.793711 0-.793711.5291406v.7937109c0 .5291407.2645703.5291407.793711.5291407h.5291406c.5291407 0 .793711 0 .793711-.5291407v-.7937109c0-.5291406-.2645703-.5291406-.793711-.5291406z" fill="#fac342"/><path d="m2.1167101 2.1165625c.1461169 0 .2645703.1184534.2645703.2645703-.0001217.083184-.03936.1614673-.1059313.2113467l.1059313.3177939h-.5291406l.1059313-.3177939c-.0665712-.0498794-.1058096-.1281631-.1059313-.2113467 0-.1461169.1184534-.2645703.2645703-.2645703z" fill="#4f4f4f"/><path d="m2.1167101.26457028v3.70398442h.7683915c.7428341 0 .8190304-.076236.8190304-.8205807v-1.0314115-1.0314115c0-.74434214-.076199-.82058072-.8190304-.82058072z" fill="#fff" opacity=".2"/><path d="m.5292882 2.1165625v1.0314115c-.003651.7443342.0761989.8205807.8190303.8205807h1.5367831c.7428341 0 .8190304-.076236.8190304-.8205807v-1.0314115z" fill="#fff" opacity=".2"/><path clip-path="url(#b)" d="m325.09646 237c-2.80769 0-3.10979.28839-3.09603 3.10176v3.89824 3.89824c-.0138 2.81337.28834 3.10176 3.09603 3.10176h5.8075c2.8077 0 3.09604-.28835 3.09604-3.10176v-3.89824-3.89824c0-2.8134-.28835-3.10176-3.09604-3.10176z" fill="none" opacity=".4" stroke="url(#a)" stroke-width="2" transform="matrix(.26457031 0 0 .26457031 -84.662352 -62.438594)"/></svg>

<?xml version="1.0" encoding="UTF-8" standalone="no"?>
<svg
   xmlns:dc="http://purl.org/dc/elements/1.1/"
   xmlns:cc="http://creativecommons.org/ns#"
   xmlns:rdf="http://www.w3.org/1999/02/22-rdf-syntax-ns#"
   xmlns:svg="http://www.w3.org/2000/svg"
   xmlns="http://www.w3.org/2000/svg"
   xmlns:xlink="http://www.w3.org/1999/xlink"
   xmlns:sodipodi="http://sodipodi.sourceforge.net/DTD/sodipodi-0.dtd"
   xmlns:inkscape="http://www.inkscape.org/namespaces/inkscape"
   height="16"
   viewBox="0 0 4.233125 4.233125"
   width="16"
   version="1.1"
   id="svg41"
   sodipodi:docname="7.svg"
   inkscape:version="0.92.5 (2060ec1f9f, 2020-04-08)">
  <metadata
     id="metadata47">
    <rdf:RDF>
      <cc:Work
         rdf:about="">
        <dc:format>image/svg+xml</dc:format>
        <dc:type
           rdf:resource="http://purl.org/dc/dcmitype/StillImage" />
        <dc:title></dc:title>
      </cc:Work>
    </rdf:RDF>
  </metadata>
  <defs
     id="defs45">
    <clipPath
       clipPathUnits="userSpaceOnUse"
       id="clipPath983">
      <path
         sodipodi:nodetypes="scccssscsss"
         inkscape:connector-curvature="0"
         id="path985"
         d="m 325.09646,237 c -2.80769,0 -3.10979,0.28839 -3.09603,3.10176 V 244 v 3.89824 c -0.0138,2.81337 0.28834,3.10176 3.09603,3.10176 h 5.8075 C 333.71166,251 334,250.71165 334,247.89824 V 244 240.10176 C 334,237.28836 333.71165,237 330.90396,237 Z"
         style="color:#000000;display:inline;overflow:visible;visibility:visible;opacity:1;fill:#46a926;fill-opacity:1;fill-rule:nonzero;stroke:none;stroke-width:2;stroke-miterlimit:4;stroke-dasharray:none;stroke-opacity:1;marker:none;enable-background:accumulate" />
    </clipPath>
    <clipPath
       clipPathUnits="userSpaceOnUse"
       id="clipPath983-3">
      <path
         sodipodi:nodetypes="scccssscsss"
         inkscape:connector-curvature="0"
         id="path985-6"
         d="m 325.09646,237 c -2.80769,0 -3.10979,0.28839 -3.09603,3.10176 V 244 v 3.89824 c -0.0138,2.81337 0.28834,3.10176 3.09603,3.10176 h 5.8075 C 333.71166,251 334,250.71165 334,247.89824 V 244 240.10176 C 334,237.28836 333.71165,237 330.90396,237 Z"
         style="color:#000000;display:inline;overflow:visible;visibility:visible;opacity:1;fill:#46a926;fill-opacity:1;fill-rule:nonzero;stroke:none;stroke-width:2;stroke-miterlimit:4;stroke-dasharray:none;stroke-opacity:1;marker:none;enable-background:accumulate" />
    </clipPath>
    <clipPath
       clipPathUnits="userSpaceOnUse"
       id="clipPath983-36">
      <path
         sodipodi:nodetypes="scccssscsss"
         inkscape:connector-curvature="0"
         id="path985-7"
         d="m 325.09646,237 c -2.80769,0 -3.10979,0.28839 -3.09603,3.10176 V 244 v 3.89824 c -0.0138,2.81337 0.28834,3.10176 3.09603,3.10176 h 5.8075 C 333.71166,251 334,250.71165 334,247.89824 V 244 240.10176 C 334,237.28836 333.71165,237 330.90396,237 Z"
         style="color:#000000;display:inline;overflow:visible;visibility:visible;opacity:1;fill:#46a926;fill-opacity:1;fill-rule:nonzero;stroke:none;stroke-width:2;stroke-miterlimit:4;stroke-dasharray:none;stroke-opacity:1;marker:none;enable-background:accumulate" />
    </clipPath>
    <linearGradient
       inkscape:collect="always"
       xlink:href="#linearGradient927"
       id="linearGradient993"
       x1="328"
       y1="237"
       x2="328"
       y2="251"
       gradientUnits="userSpaceOnUse" />
    <linearGradient
       inkscape:collect="always"
       id="linearGradient927">
      <stop
         style="stop-color:#ffffff;stop-opacity:1;"
         offset="0"
         id="stop923" />
      <stop
         id="stop933"
         offset="0.125"
         style="stop-color:#ffffff;stop-opacity:0.09803922" />
      <stop
         id="stop931"
         offset="0.92500001"
         style="stop-color:#ffffff;stop-opacity:0.09803922" />
      <stop
         style="stop-color:#ffffff;stop-opacity:0.49803922"
         offset="1"
         id="stop925" />
    </linearGradient>
    <clipPath
       clipPathUnits="userSpaceOnUse"
       id="clipPath983-367">
      <path
         sodipodi:nodetypes="scccssscsss"
         inkscape:connector-curvature="0"
         id="path985-5"
         d="m 325.09646,237 c -2.80769,0 -3.10979,0.28839 -3.09603,3.10176 V 244 v 3.89824 c -0.0138,2.81337 0.28834,3.10176 3.09603,3.10176 h 5.8075 C 333.71166,251 334,250.71165 334,247.89824 V 244 240.10176 C 334,237.28836 333.71165,237 330.90396,237 Z"
         style="color:#000000;display:inline;overflow:visible;visibility:visible;opacity:1;fill:#46a926;fill-opacity:1;fill-rule:nonzero;stroke:none;stroke-width:2;stroke-miterlimit:4;stroke-dasharray:none;stroke-opacity:1;marker:none;enable-background:accumulate" />
    </clipPath>
    <linearGradient
       inkscape:collect="always"
       xlink:href="#linearGradient4338"
       id="linearGradient920"
       gradientUnits="userSpaceOnUse"
       gradientTransform="matrix(0,-0.00953618,0.00953591,0,-0.94298467,4.4736432)"
       x1="459.03448"
       y1="419.23337"
       x2="35.310345"
       y2="207.36522" />
    <linearGradient
       inkscape:collect="always"
       id="linearGradient4338">
      <stop
         style="stop-color:#f2f2f2;stop-opacity:1"
         offset="0"
         id="stop4340" />
      <stop
         style="stop-color:#f9f9f9;stop-opacity:1"
         offset="1"
         id="stop4342" />
    </linearGradient>
  </defs>
  <sodipodi:namedview
     pagecolor="#ffffff"
     bordercolor="#666666"
     borderopacity="1"
     objecttolerance="10"
     gridtolerance="10"
     guidetolerance="10"
     inkscape:pageopacity="0"
     inkscape:pageshadow="2"
     inkscape:window-width="960"
     inkscape:window-height="1016"
     id="namedview43"
     showgrid="false"
     inkscape:zoom="30.141656"
     inkscape:cx="8.0002789"
     inkscape:cy="7.9999998"
     inkscape:window-x="0"
     inkscape:window-y="27"
     inkscape:window-maximized="0"
     inkscape:current-layer="svg41" />
  <linearGradient
     id="a"
     gradientUnits="userSpaceOnUse"
     x1="328"
     x2="328"
     y1="237"
     y2="251">
    <stop
       offset="0"
       stop-color="#fff"
       id="stop2" />
    <stop
       offset=".125"
       stop-color="#fff"
       stop-opacity=".098039"
       id="stop4" />
    <stop
       offset=".92500001"
       stop-color="#fff"
       stop-opacity=".098039"
       id="stop6" />
    <stop
       offset="1"
       stop-color="#fff"
       stop-opacity=".498039"
       id="stop8" />
  </linearGradient>
  <clipPath
     id="b">
    <path
       d="m325.09646 237c-2.80769 0-3.10979.28839-3.09603 3.10176v3.89824 3.89824c-.0138 2.81337.28834 3.10176 3.09603 3.10176h5.8075c2.8077 0 3.09604-.28835 3.09604-3.10176v-3.89824-3.89824c0-2.8134-.28835-3.10176-3.09604-3.10176z"
       id="path11" />
  </clipPath>
  <linearGradient
     gradientUnits="userSpaceOnUse"
     x1="334.86633"
     x2="334.86633"
     y1="140.23035"
     y2="160.63107"
     id="linearGradient18">
    <stop
       offset="0"
       stop-color="#808080"
       id="stop14" />
    <stop
       offset="1"
       stop-color="#999"
       id="stop16" />
  </linearGradient>
  <linearGradient
     id="c"
     gradientTransform="matrix(0 -.00953618 .00953591 0 -.942984 4.47364)"
     gradientUnits="userSpaceOnUse"
     x1="459.03448"
     x2="35.310345"
     y1="419.23337"
     y2="207.36522">
    <stop
       offset="0"
       stop-color="#f2f2f2"
       id="stop20" />
    <stop
       offset="1"
       stop-color="#f9f9f9"
       id="stop22" />
  </linearGradient>
  <path
     style="color:#000000;font-style:normal;font-variant:normal;font-weight:normal;font-stretch:normal;font-size:medium;line-height:normal;font-family:sans-serif;font-variant-ligatures:normal;font-variant-position:normal;font-variant-caps:normal;font-variant-numeric:normal;font-variant-alternates:normal;font-feature-settings:normal;text-indent:0;text-align:start;text-decoration:none;text-decoration-line:none;text-decoration-style:solid;text-decoration-color:#000000;letter-spacing:normal;word-spacing:normal;text-transform:none;writing-mode:lr-tb;direction:ltr;text-orientation:mixed;dominant-baseline:auto;baseline-shift:baseline;text-anchor:start;white-space:normal;shape-padding:0;clip-rule:nonzero;display:inline;overflow:visible;visibility:visible;opacity:0.1;isolation:auto;mix-blend-mode:normal;color-interpolation:sRGB;color-interpolation-filters:linearRGB;solid-color:#000000;solid-opacity:1;vector-effect:none;fill:#000000;fill-opacity:1;fill-rule:nonzero;stroke:none;stroke-width:0.52914065;stroke-linecap:butt;stroke-linejoin:miter;stroke-miterlimit:4;stroke-dasharray:none;stroke-dashoffset:0;stroke-opacity:1;marker:none;color-rendering:auto;image-rendering:auto;shape-rendering:auto;text-rendering:auto;enable-background:accumulate"
     d="m 1.3483185,0.26457028 c -0.1902366,0 -0.3444309,0.003678 -0.48573256,0.0273883 C 0.72128158,0.31569058 0.57994548,0.36505408 0.47192935,0.47281622 0.36391587,0.58057571 0.31409463,0.72236688 0.29055581,0.86398607 0.26700906,1.0056079 0.26378394,1.1604318 0.2647073,1.3512717 V 2.1165625 3.147974 c -7.9372e-4,0.1900038 0.002381,0.3445631 0.0258485,0.4857352 0.0235468,0.1416192 0.0733574,0.2834104 0.18137354,0.3911699 0.10801613,0.1077621 0.24935223,0.1571389 0.39065659,0.1808576 0.14130167,0.023732 0.29549597,0.027388 0.48573257,0.027388 h 1.5367831 c 0.1902367,0 0.3440949,-0.00362 0.4852167,-0.027388 C 3.5114428,4.1819783 3.6527948,4.1322073 3.7604564,4.0243631 3.868118,3.916519 3.9176217,3.7749501 3.941314,3.6337092 3.9650089,3.4924657 3.9687023,3.3385784 3.9687023,3.147974 V 2.1165625 1.3497213 c 0,-0.1906044 -0.0037,-0.3444917 -0.027388,-0.48573523 C 3.9176353,0.72274521 3.8681183,0.58117628 3.7604564,0.47333213 3.6527948,0.36548798 3.5114428,0.31570643 3.3703183,0.2919586 3.2291965,0.2682081 3.0753383,0.2645703 2.8851016,0.2645703 Z"
     id="path997"
     inkscape:connector-curvature="0"
     sodipodi:nodetypes="scscccccccsscscscscscss" />
  <path
     sodipodi:nodetypes="scccssscsss"
     inkscape:connector-curvature="0"
     id="path928"
     d="m 1.3485196,0.26457028 c -0.74283143,0 -0.82275813,0.0762994 -0.81911763,0.82063362 v 1.0313586 1.0313586 c -0.003651,0.7443342 0.0762862,0.8206336 0.81911763,0.8206336 h 1.5364921 c 0.7428341,0 0.8191203,-0.076289 0.8191203,-0.8206336 V 2.1165625 1.0852039 c 0,-0.74434212 -0.076289,-0.82063362 -0.8191203,-0.82063362 z"
     style="color:#000000;display:inline;overflow:visible;visibility:visible;opacity:0.2;fill:none;fill-opacity:1;fill-rule:nonzero;stroke:#000000;stroke-width:0.52914065;stroke-miterlimit:4;stroke-dasharray:none;stroke-opacity:1;marker:none;enable-background:accumulate" />
  <path
     style="color:#000000;display:inline;overflow:visible;visibility:visible;fill:url(#linearGradient920);fill-opacity:1;fill-rule:nonzero;stroke:none;stroke-width:0.26457033;marker:none;enable-background:accumulate"
     d="m 1.3485196,0.26457028 c -0.74283143,0 -0.82275813,0.0762994 -0.81911763,0.82063362 v 1.0313586 1.0313586 c -0.003651,0.7443342 0.0762862,0.8206336 0.81911763,0.8206336 h 1.5364921 c 0.7428341,0 0.8191203,-0.076289 0.8191203,-0.8206336 V 2.1165625 1.0852039 c 0,-0.74434212 -0.076289,-0.82063362 -0.8191203,-0.82063362 z"
     id="path918"
     inkscape:connector-curvature="0"
     sodipodi:nodetypes="scccssscsss" />
  <path
     sodipodi:nodetypes="csssc"
     inkscape:connector-curvature="0"
     id="path1041"
     d="M 1.4552843,1.8519922 V 1.5874219 c 0,-0.5291407 0.00653,-0.92599615 0.6614258,-0.92599615 0.6539199,0 0.6614257,0.39685545 0.6614257,0.92599615 v 0.2645703"
     style="display:inline;fill:none;stroke:#808080;stroke-width:0.26457033px;stroke-linecap:butt;stroke-linejoin:miter;stroke-opacity:1;enable-background:new" />
  <path
     inkscape:connector-curvature="0"
     style="display:inline;fill:#fac342;fill-opacity:1;stroke:none;stroke-width:0.26457033px;stroke-linecap:butt;stroke-linejoin:miter;stroke-opacity:1;enable-background:new"
     d="m 1.8521398,1.5874219 c -0.5291407,0 -0.793711,0 -0.793711,0.5291406 v 0.7937109 c 0,0.5291407 0.2645703,0.5291407 0.793711,0.5291407 h 0.5291406 c 0.5291407,0 0.793711,0 0.793711,-0.5291407 V 2.1165625 c 0,-0.5291406 -0.2645703,-0.5291406 -0.793711,-0.5291406 z"
     id="path936" />
  <path
     inkscape:connector-curvature="0"
     style="display:inline;fill:#4f4f4f;fill-opacity:1;stroke:none;stroke-width:0.26457033px;stroke-linecap:butt;stroke-linejoin:miter;stroke-opacity:1;enable-background:new"
     d="m 2.1167101,2.1165625 c 0.1461169,0 0.2645703,0.1184534 0.2645703,0.2645703 -1.217e-4,0.083184 -0.03936,0.1614673 -0.1059313,0.2113467 L 2.3812804,2.9102734 H 1.8521398 L 1.9580711,2.5924795 C 1.8914999,2.5426001 1.8522615,2.4643164 1.8521398,2.3811328 c 0,-0.1461169 0.1184534,-0.2645703 0.2645703,-0.2645703 z"
     id="path1043" />
  <path
     style="color:#000000;display:inline;overflow:visible;visibility:visible;opacity:0.2;fill:#ffffff;fill-opacity:1;fill-rule:nonzero;stroke:none;stroke-width:0.26457033;marker:none;enable-background:accumulate"
     d="M 2.1167101,0.26457028 V 3.9685547 h 0.7683915 c 0.7428341,0 0.8190304,-0.076236 0.8190304,-0.8205807 V 2.1165625 1.085151 c 0,-0.74434214 -0.076199,-0.82058072 -0.8190304,-0.82058072 z"
     id="path1009"
     inkscape:connector-curvature="0" />
  <path
     style="color:#000000;display:inline;overflow:visible;visibility:visible;opacity:0.2;fill:#ffffff;fill-opacity:1;fill-rule:nonzero;stroke:none;stroke-width:0.26457033;marker:none;enable-background:accumulate"
     d="M 0.5292882,2.1165625 V 3.147974 c -0.003651,0.7443342 0.0761989,0.8205807 0.8190303,0.8205807 h 1.5367831 c 0.7428341,0 0.8190304,-0.076236 0.8190304,-0.8205807 V 2.1165625 Z"
     id="path1016"
     inkscape:connector-curvature="0" />
  <path
     transform="matrix(0.26457031,0,0,0.26457031,-84.662352,-62.438594)"
     style="color:#000000;display:inline;overflow:visible;visibility:visible;opacity:0.4;fill:none;fill-opacity:1;fill-rule:nonzero;stroke:url(#linearGradient993);stroke-width:2;stroke-miterlimit:4;stroke-dasharray:none;stroke-opacity:1;marker:none;enable-background:accumulate"
     d="m 325.09646,237 c -2.80769,0 -3.10979,0.28839 -3.09603,3.10176 V 244 v 3.89824 c -0.0138,2.81337 0.28834,3.10176 3.09603,3.10176 h 5.8075 C 333.71166,251 334,250.71165 334,247.89824 V 244 240.10176 C 334,237.28836 333.71165,237 330.90396,237 Z"
     id="path937"
     inkscape:connector-curvature="0"
     sodipodi:nodetypes="scccssscsss"
     clip-path="url(#clipPath983-367)" />
</svg>
